X:235
T: Hare in the Corn A
S: Traditional Irish Music (K.Tweed)
Z: B.Black
L: 1/8
M: 6/8
R: jig
K: G
d2 B GFG|ded cBA|BAG EDB,|EDB, A,B,A,|
G,B,D G,B,D|EFG Adc|B2 G dBG|B/A/GF G2 B :|
ded BGB|def gfe|f/e/dB gdB|gdB ABA|
GBd GBd|bag ege|g/e/dB gdB|cAF G3 :|
